X: 66
T:Up to your Neck in Sand
R:reel
S:Jackie Daly/Kevin Burke
D:Patrick Street CD  "Made in Cork"
Z:Barney
M:4/4
L:1/8
K:G
G2 GF GABc|d2 eB dBAF|DFAF BFAF|DFAF GFED|
G2 GF GABc|d2 eB dBAG|Be (3eee dBAF|DEFD E3 F:||
GB ~B2 GBEG|FA ~A2 FADF|GB ~B2 GBEG|FGAF E3 F|
GB ~B2 GBEG|FA ~A2 FADF|G3  F GABG|AGFG E4||
GBEB GBEG|FADA FADF|GBEB GBEG|FGAF E3 F|
GBEB GBEG|FADA FADF|G2 GF GABG|AGFG E4||
